X: 2954
T: Barrowburn
R: reel
M: 4/4
K: Dmajor
|:D2ED FA~A2|ABBA BcdB|AFAB d3e|fedB AFEA|
D2ED FA~A2|ABBA Bcde|fagf egfe|1 dBAB dBAF:|2 dBAB d2cd||
|:e2ef ecBA|f2fg fdBA|g2ga gecA|a2ag f2ef|
g2ga gecA|a2ag f2ef|g2ag f2ed|1 dBAB d2cd:|2 dBAB dBAF||

